build/img/icon-house.svg

<svg width="75" height="72" viewBox="0 0 75 72" fill="none" xmlns="http://www.w3.org/2000/svg">
<path d="M29.6185 64.9389H45.6827V41.1709H29.6185V64.9389ZM42.7711 62.0549H32.5301V44.0549H42.6707V62.0549H42.7711Z" fill="#81B3D2"/>
<path d="M72.8916 39.1823L75 37.0939L65.0602 27.2486V0.39779H51.2048V13.5249L37.4498 0L0 37.1934L2.10843 39.2818L9.93976 31.5249V69.116H6.0241V72H70.1807V69.116H65.0602V31.4254L72.8916 39.1823ZM54.1165 3.38122H62.0482V24.3646L54.1165 16.5083V3.38122ZM62.1486 69.0166H12.9518V28.5414L37.4498 4.1768L62.0482 28.5414V69.0166H62.1486Z" fill="#81B3D2"/>
<path d="M29.9197 27.0491C29.9197 31.3253 33.4338 34.806 37.6507 34.806C41.9679 34.806 45.482 31.3253 45.482 27.0491C45.482 22.7728 41.9679 19.3916 37.6507 19.3916C33.3334 19.3916 29.9197 22.7728 29.9197 27.0491ZM37.6507 22.0767C40.3615 22.0767 42.6707 24.2645 42.6707 27.0491C42.6707 29.7341 40.4619 32.0214 37.6507 32.0214C34.9398 32.0214 32.6306 29.8336 32.6306 27.0491C32.6306 24.364 34.9398 22.0767 37.6507 22.0767Z" fill="#81B3D2"/>
<path d="M19.9799 41.1709H16.9679V45.0493H19.9799V41.1709Z" fill="#81B3D2"/>
<path d="M25.9036 41.1709H22.8915V45.0493H25.9036V41.1709Z" fill="#81B3D2"/>
<path d="M19.9799 47.1387H16.9679V51.0171H19.9799V47.1387Z" fill="#81B3D2"/>
<path d="M25.9036 47.1387H22.8915V51.0171H25.9036V47.1387Z" fill="#81B3D2"/>
<path d="M52.008 41.1709H48.996V45.0493H52.008V41.1709Z" fill="#81B3D2"/>
<path d="M58.0321 41.1709H55.0201V45.0493H58.0321V41.1709Z" fill="#81B3D2"/>
<path d="M52.008 47.1387H48.996V51.0171H52.008V47.1387Z" fill="#81B3D2"/>
<path d="M58.0321 47.1387H55.0201V51.0171H58.0321V47.1387Z" fill="#81B3D2"/>
</svg>

<svg width="75" height="72" fill="none" xmlns="http://www.w3.org/2000/svg"><path d="M29.619 64.939h16.064V41.17H29.619v23.768zm13.152-2.884h-10.24v-18h10.14v18h.1z" fill="#81B3D2"/><path d="M72.892 39.182L75 37.094l-9.94-9.845V.398H51.205v13.127L37.45 0 0 37.193l2.108 2.089 7.832-7.757v37.591H6.024V72h64.157v-2.884h-5.12v-37.69l7.83 7.756zm-18.775-35.8h7.931v20.983l-7.931-7.857V3.381zm8.032 65.635H12.952V28.54L37.45 4.177 62.048 28.54v40.476h.1z" fill="#81B3D2"/><path d="M29.92 27.05c0 4.275 3.514 7.756 7.73 7.756 4.318 0 7.832-3.48 7.832-7.757 0-4.276-3.514-7.657-7.831-7.657-4.318 0-7.731 3.38-7.731 7.657zm7.73-4.973c2.712 0 5.02 2.188 5.02 4.972 0 2.685-2.208 4.972-5.02 4.972-2.71 0-5.02-2.187-5.02-4.972 0-2.685 2.31-4.972 5.02-4.972zM19.98 41.17h-3.012v3.88h3.012v-3.88zm5.924 0h-3.012v3.88h3.012v-3.88zm-5.924 5.969h-3.012v3.878h3.012V47.14zm5.924 0h-3.012v3.878h3.012V47.14zm26.104-5.969h-3.012v3.88h3.012v-3.88zm6.024 0H55.02v3.88h3.012v-3.88zm-6.024 5.969h-3.012v3.878h3.012V47.14zm6.024 0H55.02v3.878h3.012V47.14z" fill="#81B3D2"/></svg>
